X:101
T:T062- The Gobby O
S:Aird's Airs, IV (c 1794)
Q:1/4=120
L:1/8
M:6/8
K:Am
B|c2A AcA|E2AA2c|B2G GBc|dBG GAB|c2A AcA|E2AA2f|edc BAB|\
E2AA2::B|A2Bc2d|e2^fg3|^faf gfe|dBGG2B|A2Bc2d|e2^f aga|\
edc BAc|E2AA2:|]

